X:555
T:
S:Efter »Florsen» i Burs.
R:vals
O:Gotland, Burs
M:3/4
L:1/8
K:D
D2|(DE)(FG)(AB)|(AB)(cd)(ef)|(fe)(eA)(ce)|d2 (fa) d'2|
(DE)(FG)(AB)|(AB)(cd)(ef)|(fe)(eA)(ce)|d4::A2|g3 (fed)|
(cB)(AG)(FE)|(DF)(FA)(Ad)|A2 (Ad)(df)|g3 (fed)|
(cB)(AG)(FE)|(DF)(Ad)(ce)|d4:|
K:G
|:D2|G3 (B,DG)|B2 (DG) B2|(AD)(FA)(dc)|(BG)(Bd) g2|
(GG,)(B,D) G2|B2 (B,D)(GB)|(AD)(FA)(dF)|G4:|
K:D
|:(FG)|A4 (^GA)|d2 (Ad) f2|e2 (Ac)(ec)|(dA)(FG)(BA)|
A4 (^GA)|d2 (Ad) f2|e2 (Ac)(ec)|d4 :|

